X:3
T:Burtr\"ask Hambo
%O:Sweden
R:Hambo
Z:Bob Wyttenbach 5/30/03 from Andrea Hoag for NFF 2003
M:3/4
L:1/8
%Q:1/4=160
K:D
P:A
(a^g/a/)b2a>f|(g>e)c4|(a^g/a/)b2a>f|(3(faf)d4|
f>ag2f2|e>dB2G2|(F>A) (A>c) (3e(fe)|d2d4:|
P:B
(d>A) (F>A) A>c|(d>B) (G>B) B>c|(d>B) (G>B) B>c|(d>A)F4|
(f>e)d2e>f|g2B4|(A>c) (c>e) (3e(fe)|d2d4:|
